X:36
T:Wheel of Life, The
M:C |
L:1/8
B:Thompson's Compleat Collection of 200 Favourite Country Dances, vol. 2 (London, 1765)
Z:Transcribed and edited by Flynn Titford-Mock, 2007
Z:abc's:AK/Fiddler's Companion
K:A
(dc)(BA) (fe)(dc) | f2g2 {g}a2 gf | egaf ecBA | fedc "tr"c2B2 | dcBA fedc |
f2g2 {g}a2 ba | gfed Be^df | e2E2E4 :: e2 e=g fedc | dcB^A B2 [B,2B2] | d2 df edcB |
cBAG A2 [A,2A2] | dcBA fedc | f2 g2 {g}a2 gf | ecBA dBAG | A2 [A,2A2] [A,4A4] :|

